!!!OTL: IM HIMMEL IM HIMMEL IST FREUDE SO VIEL
!!!ARE: Europa, Mitteleuropa, Deutschland
!!!SCT: E2034
!!!YEM: Copyright 1995, estate of Helmut Schaffrath.
**kern
*ICvox
*Ivox
*M3/4
*k[]
*C:
{4G
=1
4.c
8B
4c
=2
4.d
8c
4d
=3
4e
4e
8f
8e
=4
2d}
{8e
8g
=5
8g
8f
4f
4f
=6
4.e
8d
4c
=7
8e
8d
4c
4B
=8
2c}
{8e
8g
=9
8g
8f
4f
4f
=10
4.e
8d
4c
=11
8e
8d
4c
4B
=12
2c}
==
!!!AGN: geistlich, Wallfahrts - Lied
!!!ONB: ESAC (Essen Associative Code) Database: ERK3
!!!AMT: simple triple
!!!AIN: vox
!!!EED: Helmut Schaffrath
!!!EEV: 1.0
*-
